X:1
T:The Blue Danube
C:Johann Strauss II
M:3/4
L:1/4
Q:1/4=168
K:D
D | D D E | G3/2 A/2 B | A G z | A A B |
  d3/2 c/2 B | A G F | G3/2 F/2 E | D3 |
  D D E | G3/2 A/2 B | A G z | A A B |
  d3/2 c/2 B | A G F | G3/2 F/2 E | D3 |]
